public/brands/chainguard.svg

<svg width="1051" height="170" viewBox="0 0 1051 170" fill="none" xmlns="http://www.w3.org/2000/svg">
<path fill-rule="evenodd" clip-rule="evenodd" d="M142.381 93.4236C143.741 88.7319 144.48 83.5906 144.48 77.9985C144.48 43.0218 115.557 3.65353 86.6691 3.65353C57.7816 3.65353 28.8578 43.0218 28.8578 77.9985C28.8578 85.6245 30.2328 92.4122 32.6826 98.3645L15.3182 97.3881C8.24572 96.9904 1.72988 102.033 2.83296 109.03C3.2608 111.744 4.07615 114.522 5.53233 116.921C0.616539 120.379 -1.39152 126.736 2.59162 131.718C6.59018 136.719 12.4611 141.327 20.5199 141.327C29.2607 141.327 34.5212 139.068 37.7159 136.231C37.9491 137.47 38.4301 138.69 39.1895 139.843C43.1126 145.799 49.61 152.346 59.2157 152.346C75.5561 152.346 77.3785 142.083 78.293 136.933C78.3645 136.53 78.4305 136.158 78.4974 135.825L89.4171 130.364L100.337 135.825C100.404 136.158 100.47 136.529 100.541 136.932L100.541 136.933C101.456 142.083 103.278 152.346 119.619 152.346C129.224 152.346 135.722 145.799 139.645 139.843C139.799 139.609 139.942 139.372 140.073 139.132C143.152 140.463 147.227 141.327 152.633 141.327C160.692 141.327 166.563 136.719 170.562 131.718C175.459 125.592 171.299 117.389 163.813 115.05L161.34 114.277C168.603 110.512 169.672 103.413 168.894 97.1917C168.015 90.1624 160.357 87.1238 153.672 89.4665L142.381 93.4236ZM89.4275 130.263C89.4211 130.263 89.4146 130.263 89.4081 130.263L89.4171 130.268L89.4275 130.263Z" fill="#14003D"/>
<path d="M273.444 136.871C240.27 136.871 219.058 115.34 219.058 77.3815C219.058 41.4966 242.981 19.4871 274.56 19.4871C301.833 19.4871 321.45 35.117 324.321 61.5921H302.63C300.557 47.0787 290.988 37.1904 274.56 37.1904C254.784 37.1904 240.589 52.3418 240.589 77.3815C240.589 103.378 254.624 119.168 274.082 119.168C290.669 119.168 301.673 108.482 303.906 93.6494H324.799C322.088 119.487 303.428 136.871 273.444 136.871ZM340.007 134V22.3579H359.464V59.6783C359.464 61.9111 359.305 64.3035 358.826 67.3337C363.132 59.5188 370.469 53.6177 382.75 53.6177C399.974 53.6177 410.182 65.7389 410.182 84.8775V134H390.724V87.7483C390.724 76.2651 385.142 69.0881 376.051 69.0881C366.482 69.0881 359.464 77.541 359.464 88.3862V134H340.007ZM452.055 136.871C438.498 136.871 425.261 127.939 425.261 112.629C425.261 95.0848 438.817 89.0242 455.564 86.7914L466.728 85.356C473.107 84.5585 475.34 82.1662 475.34 78.3385C475.34 72.9158 470.875 68.1312 462.581 68.1312C453.49 68.1312 447.749 73.2348 446.951 81.3687H426.856C428.132 65.1009 441.369 53.6177 461.465 53.6177C485.228 53.6177 494.798 66.3768 494.798 88.2268V134H476.776V130.81C476.776 128.258 477.095 125.866 477.573 123.314C473.426 130.97 465.452 136.871 452.055 136.871ZM457.318 122.517C467.685 122.517 475.978 114.861 475.978 103.857V95.4037C474.224 96.9986 471.512 97.7961 466.728 98.753L460.348 100.029C451.257 101.783 445.037 104.814 445.037 111.831C445.037 118.689 450.46 122.517 457.318 122.517ZM513.824 134V56.1695H533.282V134H513.824ZM513.346 44.3674V23.9528H533.601V44.3674H513.346ZM553.385 134V56.1695H572.843V59.6783C572.843 61.9111 572.683 64.3035 572.205 67.3337C576.511 59.5188 583.847 53.6177 596.128 53.6177C613.353 53.6177 623.56 65.7389 623.56 84.8775V134H604.102V87.7483C604.102 76.2651 598.52 69.0881 589.429 69.0881C579.86 69.0881 572.843 77.541 572.843 88.3862V134H553.385ZM677.554 169.406C654.588 169.406 641.51 157.126 641.51 139.423H661.287C661.605 148.673 667.507 154.096 678.033 154.096C688.24 154.096 696.852 148.035 696.852 136.392V127.939C696.852 124.431 697.012 121.241 697.49 118.211C692.865 125.228 685.369 131.129 673.248 131.129C652.993 131.129 638.32 116.935 638.32 92.3735C638.32 68.1312 655.226 53.6177 672.291 53.6177C686.007 53.6177 692.865 59.1998 697.49 67.3337C697.012 64.6224 696.852 62.5491 696.852 59.6783V56.1695H716.31V131.608C716.31 157.126 700.521 169.406 677.554 169.406ZM678.192 115.659C689.675 115.659 697.969 105.93 697.969 92.3735C697.969 78.8169 689.675 69.0881 678.192 69.0881C666.39 69.0881 658.097 78.8169 658.097 92.3735C658.097 105.93 666.39 115.659 678.192 115.659ZM763.349 136.871C747.719 136.871 735.439 126.185 735.439 105.611V56.1695H755.056V102.581C755.056 113.426 759.841 121.241 769.25 121.241C779.139 121.241 786.156 113.904 786.156 102.421V56.1695H805.614V134H786.316V130.81C786.316 128.418 786.635 125.707 787.113 123.314C783.126 130.81 776.268 136.871 763.349 136.871ZM848.284 136.871C834.728 136.871 821.49 127.939 821.49 112.629C821.49 95.0848 835.047 89.0242 851.793 86.7914L862.957 85.356C869.337 84.5585 871.57 82.1662 871.57 78.3385C871.57 72.9158 867.104 68.1312 858.811 68.1312C849.72 68.1312 843.978 73.2348 843.181 81.3687H823.085C824.361 65.1009 837.599 53.6177 857.694 53.6177C881.458 53.6177 891.027 66.3768 891.027 88.2268V134H873.005V130.81C873.005 128.258 873.324 125.866 873.803 123.314C869.656 130.97 861.682 136.871 848.284 136.871ZM853.548 122.517C863.914 122.517 872.208 114.861 872.208 103.857V95.4037C870.453 96.9986 867.742 97.7961 862.957 98.753L856.578 100.029C847.487 101.783 841.267 104.814 841.267 111.831C841.267 118.689 846.69 122.517 853.548 122.517ZM910.054 134V56.1695H929.512V62.0706C929.512 64.9414 929.352 67.3337 928.874 70.2045C933.02 61.4327 940.038 53.6177 951.68 53.6177C953.275 53.6177 954.551 53.7772 955.827 54.0962V72.9158C954.551 72.5969 952.797 72.2779 950.245 72.2779C938.283 72.2779 929.512 78.3385 929.512 95.4037V134H910.054ZM997.069 136.871C976.495 136.871 961.503 122.836 961.503 95.4037C961.503 67.4932 979.206 53.6177 997.388 53.6177C1009.51 53.6177 1017 59.8378 1021.47 67.3337C1020.83 64.4629 1020.83 62.0706 1020.83 59.6783V22.3579H1040.29V134H1020.83V130.81C1020.83 128.099 1020.83 126.026 1021.47 123.314C1018.44 129.056 1011.42 136.871 997.069 136.871ZM1001.69 121.56C1013.34 121.56 1021.95 110.874 1021.95 95.2443C1021.95 79.2954 1013.34 69.0881 1001.69 69.0881C990.051 69.0881 981.279 79.7739 981.279 95.2443C981.279 111.353 990.051 121.56 1001.69 121.56Z" fill="#14003D"/>
</svg>

<svg xmlns="http://www.w3.org/2000/svg" width="1051" height="170" fill="none"><path fill="#14003D" fill-rule="evenodd" d="M142.381 93.424c1.36-4.692 2.099-9.833 2.099-15.425 0-34.977-28.923-74.345-57.81-74.345S28.857 43.022 28.857 77.999c0 7.626 1.375 14.413 3.825 20.366l-17.365-.977C8.246 96.99 1.73 102.033 2.833 109.03c.428 2.714 1.243 5.492 2.7 7.891-4.916 3.458-6.925 9.815-2.941 14.797 3.998 5.001 9.87 9.609 17.928 9.609 8.74 0 14.001-2.259 17.196-5.096a9.9 9.9 0 0 0 1.474 3.612c3.923 5.956 10.42 12.503 20.026 12.503 16.34 0 18.163-10.263 19.077-15.413.072-.403.137-.775.204-1.108l10.92-5.461 10.92 5.461q.099.501.204 1.107v.001c.915 5.15 2.737 15.413 19.078 15.413 9.605 0 16.103-6.547 20.026-12.503q.231-.351.428-.711c3.079 1.331 7.154 2.195 12.56 2.195 8.059 0 13.93-4.608 17.929-9.609 4.897-6.126.737-14.329-6.749-16.668l-2.473-.773c7.263-3.765 8.332-10.864 7.554-17.085-.879-7.03-8.537-10.068-15.222-7.725zm-52.954 36.839h-.019l.01.005z" clip-rule="evenodd"/><path fill="#14003D" d="M273.444 136.871c-33.174 0-54.386-21.531-54.386-59.49 0-35.884 23.923-57.894 55.502-57.894 27.273 0 46.89 15.63 49.761 42.105H302.63c-2.073-14.513-11.642-24.402-28.07-24.402-19.776 0-33.971 15.152-33.971 40.192 0 25.996 14.035 41.786 33.493 41.786 16.587 0 27.591-10.686 29.824-25.519h20.893c-2.711 25.838-21.371 43.222-51.355 43.222M340.007 134V22.358h19.457v37.32c0 2.233-.159 4.626-.638 7.656 4.306-7.815 11.643-13.716 23.924-13.716 17.224 0 27.432 12.12 27.432 31.26V134h-19.458V87.748c0-11.483-5.582-18.66-14.673-18.66-9.569 0-16.587 8.453-16.587 19.298V134zm112.048 2.871c-13.557 0-26.794-8.932-26.794-24.242 0-17.544 13.556-23.605 30.303-25.838l11.164-1.435c6.379-.797 8.612-3.19 8.612-7.017 0-5.423-4.465-10.208-12.759-10.208-9.091 0-14.832 5.104-15.63 13.238h-20.095c1.276-16.268 14.513-27.751 34.609-27.751 23.763 0 33.333 12.759 33.333 34.609V134h-18.022v-3.19c0-2.552.319-4.944.797-7.496-4.147 7.656-12.121 13.557-25.518 13.557m5.263-14.354c10.367 0 18.66-7.656 18.66-18.66v-8.453c-1.754 1.595-4.466 2.392-9.25 3.349l-6.38 1.276c-9.091 1.754-15.311 4.785-15.311 11.802 0 6.858 5.423 10.686 12.281 10.686M513.824 134V56.17h19.458V134zm-.478-89.633V23.953h20.255v20.414zM553.385 134V56.17h19.458v3.508c0 2.233-.16 4.626-.638 7.656 4.306-7.815 11.642-13.716 23.923-13.716 17.225 0 27.432 12.12 27.432 31.26V134h-19.458V87.748c0-11.483-5.582-18.66-14.673-18.66-9.569 0-16.586 8.453-16.586 19.298V134zm124.169 35.406c-22.966 0-36.044-12.28-36.044-29.983h19.777c.318 9.25 6.22 14.673 16.746 14.673 10.207 0 18.819-6.061 18.819-17.704v-8.453c0-3.508.16-6.698.638-9.728-4.625 7.017-12.121 12.918-24.242 12.918-20.255 0-34.928-14.194-34.928-38.755 0-24.243 16.906-38.756 33.971-38.756 13.716 0 20.574 5.582 25.199 13.716-.478-2.712-.638-4.785-.638-7.656V56.17h19.458v75.438c0 25.518-15.789 37.798-38.756 37.798m.638-53.747c11.483 0 19.777-9.729 19.777-23.285s-8.294-23.286-19.777-23.286c-11.802 0-20.095 9.729-20.095 23.286 0 13.556 8.293 23.285 20.095 23.285m85.157 21.212c-15.63 0-27.91-10.686-27.91-31.26V56.169h19.617v46.412c0 10.845 4.785 18.66 14.194 18.66 9.889 0 16.906-7.337 16.906-18.82V56.169h19.458V134h-19.298v-3.19c0-2.392.319-5.103.797-7.496-3.987 7.496-10.845 13.557-23.764 13.557m84.935 0c-13.556 0-26.794-8.932-26.794-24.242 0-17.544 13.557-23.605 30.303-25.838l11.164-1.435c6.38-.797 8.613-3.19 8.613-7.017 0-5.423-4.466-10.208-12.759-10.208-9.091 0-14.833 5.104-15.63 13.238h-20.096c1.276-16.268 14.514-27.751 34.609-27.751 23.764 0 33.333 12.759 33.333 34.609V134h-18.022v-3.19c0-2.552.319-4.944.798-7.496-4.147 7.656-12.121 13.557-25.519 13.557m5.264-14.354c10.366 0 18.66-7.656 18.66-18.66v-8.453c-1.755 1.595-4.466 2.392-9.251 3.349l-6.379 1.276c-9.091 1.754-15.311 4.785-15.311 11.802 0 6.858 5.423 10.686 12.281 10.686M910.054 134V56.17h19.458v5.9c0 2.871-.16 5.264-.638 8.134 4.146-8.771 11.164-16.586 22.806-16.586 1.595 0 2.871.16 4.147.478v18.82c-1.276-.32-3.03-.638-5.582-.638-11.962 0-20.733 6.06-20.733 23.126V134zm87.015 2.871c-20.574 0-35.566-14.035-35.566-41.467 0-27.91 17.703-41.786 35.885-41.786 12.122 0 19.612 6.22 24.082 13.716-.64-2.871-.64-5.263-.64-7.656v-37.32h19.46V134h-19.46v-3.19c0-2.711 0-4.784.64-7.496-3.03 5.742-10.05 13.557-24.401 13.557m4.621-15.311c11.65 0 20.26-10.686 20.26-26.316 0-15.949-8.61-26.156-20.26-26.156-11.639 0-20.411 10.686-20.411 26.156 0 16.109 8.772 26.316 20.411 26.316"/></svg>
